X:2066
T:Deiney as vraane 
C:Traditional carol
O:Isle of Man
Z:Clague collection
B:Kiaull Vannin #66 
L:1/4
M:4/4 
Q:80 
K:D 
z/ E E E|E3 F/G/|A A G F/E/|D4|z/ E E E|E3 E/F/|G A B B|G4| 
z/ G G A|B3 G|A A G F/E/|D4|z/ D D E|B2 G2|A A G F|E4|| 

